Icons/Fabric.svg

<svg xmlns="http://www.w3.org/2000/svg" xml:space="preserve" fill-rule="evenodd" stroke-linecap="round" stroke-linejoin="round" clip-rule="evenodd" viewBox="0 0 24 24"><path fill="none" d="M0 0h24v24H0z"/><path fill="none" stroke="#000" stroke-width="1.99" d="M21.318 10.069c-1.885-1.927-5.654-5.779-7.427-7.605-.398-.409-.899-.836-2.239.085-1.726 1.186-.734 1.898-.455 2.204.713.784 7.294 7.719 8.431 9.021.21.241-1.758-1.951-.569-3.447.475-.599 1.563-1.043 2.259-.258.565.638.923 1.568-.3 2.578-2.137 1.766-8.839 7.144-11.003 8.928-1.089.898-2.48.204-3.107-.526-.655-.764-2.655-2.992-4.447-5.036-.48-.547-.36-1.701.192-2.176 3.045-2.627 7.973-6.396 9.704-7.866"/></svg>

<?xml version="1.0" encoding="UTF-8" standalone="no"?>
<!DOCTYPE svg PUBLIC "-//W3C//DTD SVG 1.1//EN" "http://www.w3.org/Graphics/SVG/1.1/DTD/svg11.dtd">
<svg width="100%" height="100%" viewBox="0 0 24 24" version="1.1" xmlns="http://www.w3.org/2000/svg" xmlns:xlink="http://www.w3.org/1999/xlink" xml:space="preserve" xmlns:serif="http://www.serif.com/" style="fill-rule:evenodd;clip-rule:evenodd;stroke-linecap:round;stroke-linejoin:round;">
    <rect id="Fabric" x="0" y="0" width="24" height="24" style="fill:none;"/>
    <path d="M21.318,10.069C19.433,8.142 15.664,4.29 13.891,2.464C13.493,2.055 12.992,1.628 11.652,2.549C9.926,3.735 10.918,4.447 11.197,4.753C11.91,5.537 18.491,12.472 19.628,13.774C19.838,14.015 17.87,11.823 19.059,10.327C19.534,9.728 20.622,9.284 21.318,10.069C21.883,10.707 22.241,11.637 21.018,12.647C18.881,14.413 12.179,19.791 10.015,21.575C8.926,22.473 7.535,21.779 6.908,21.049C6.253,20.285 4.253,18.057 2.461,16.013C1.981,15.466 2.101,14.312 2.653,13.837C5.698,11.21 10.626,7.441 12.357,5.971" style="fill:none;fill-rule:nonzero;stroke:#000;stroke-width:1.99px;"/>
</svg>
